!!!!SEGMENT: Any1007b-Missa_Salve_regina-Gloria--Vienna_4810.krn
!!!id: Any1007b
!!!SMS: Vienna 4810
!!!AGN: Mass; Gloria
!!!voices: 4
!!!OPR: Missa Salve regina (Vienna 4810)
!!!COM: Anonymous
!!!OTL: Gloria
**kern	**kern	**kern	**kern
*part4	*part3	*part2	*part1
*staff4	*staff3	*staff2	*staff1
*I"Bassus	*I"Tenor	*I"Altus	*I"Superius
*I'B	*I'T	*I'A	*I'S
*clefF4	*clefGv2	*clefGv2	*clefG2
*k[b-]	*k[b-]	*k[b-]	*k[b-]
*F:	*F:	*F:	*F:
*M2/1	*M2/1	*M2/1	*M2/1
*met(C)	*met(C)	*met(C)	*met(C)
=1	=1	=1	=1
!!section: Et in terra
!!!OMD: Et in terra
0r	0d	0r	0r
=2	=2	=2	=2
0r	1c	0r	0r
.	1d	.	.
=3	=3	=3	=3
0G	1G	0r	0r
.	[1d	.	.
=4	=4	=4	=4
1F	2d]	0r	0r
.	2c	.	.
1G	2.B-y	.	.
.	4G	.	.
=5	=5	=5	=5
1D	2A	0r	0r
.	2A	.	.
[1G	1G	.	.
=6	=6	=6	=6
2G]	1d	0r	0r
2F	.	.	.
2.E	2G	.	.
.	2g	.	.
4C	.	.	.
=7	=7	=7	=7
2D	2.f	0r	0r
2D	.	.	.
.	4d	.	.
1C	4e	.	.
.	4f	.	.
.	[2g	.	.
=8	=8	=8	=8
1c	4g]	0r	0r
.	4f	.	.
.	4e	.	.
.	4d	.	.
2c	1e	.	.
2c	.	.	.
=9	=9	=9	=9
4B-y	1d	0r	0r
4c	.	.	.
4d	.	.	.
4B-y	.	.	.
4c	2r	.	.
4B-y	.	.	.
4A	2c	.	.
4G	.	.	.
=10	=10	=10	=10
2.A	2c	1r	0r
.	2c	.	.
4F	.	.	.
4G	4B-y	[1g	.
4F	4c	.	.
4E	4d	.	.
4D	4B-y	.	.
=11	=11	=11	=11
1E	4c	1g]	0r
.	4B-y	.	.
.	4A	.	.
.	4G	.	.
1D	1A	1f	.
=12	=12	=12	=12
0r	0G	1g	0dd
.	.	1d	.
=13	=13	=13	=13
0r	0r	1.f	1cc
.	.	.	1dd
.	.	2f	.
=14	=14	=14	=14
0r	0r	2e	1g
.	.	2c	.
.	.	2.f	2a
.	.	.	2cc
.	.	4e	.
=15	=15	=15	=15
0r	0r	2d	2b-y
.	.	2.c	1a
.	.	4B-y	.
.	.	4A	[2g
.	.	4G	.
=16	=16	=16	=16
1r	2r	1A	2g]
.	2c	.	2f#i
2r	2B-y	1G	2g
2G	2G	.	2b-y
=17	=17	=17	=17
2F	2A	2r	2a
2D	2A	2d	2f
2E	1G	2B-y	2.g
2E	.	2G	.
.	.	.	4e
=18	=18	=18	=18
2D	1r	2A	2f
2G	.	2B-y	2g
2F	2r	2.c	2a
2C	2c	.	[2g
.	.	4B-y	.
=19	=19	=19	=19
1E-X	2B-y	4G	2g]
.	.	4A	.
.	2G	4B-y	4f
.	.	4c	4e
1D	1A	4d	4f
.	.	4e	4d
.	.	[2f	[2dd
=20	=20	=20	=20
2r	1G	4f]	4dd]
.	.	4e	4cc
2G	.	2.e	1b-y
2F	2r	.	.
.	.	4d	.
2D	2d	[2d	[2a
=21	=21	=21	=21
1E	2B-y	2d]	2a]
.	2G	2c	1g
1D	2A	1d	.
.	2A	.	2f#i
=22	=22	=22	=22
1G	1G	0B-y	0g
1r	[1d	.	.
=23	=23	=23	=23
1.G	2d]	0r	0r
.	2d	.	.
.	1d	.	.
2G	.	.	.
=24	=24	=24	=24
1G	2.B-y	0r	0r
.	4c	.	.
2F	2d	.	.
2G	2e	.	.
=25	=25	=25	=25
2D	2f	0r	0r
2.G	2.e	.	.
4F	4d	.	.
4E	[2d	.	.
4D	.	.	.
=26	=26	=26	=26
1E	2d]	0r	0r
.	2c#i	.	.
1D	1d	.	.
=27	=27	=27	=27
2r	1A	0r	0r
2D	.	.	.
1F	2r	.	.
.	2A	.	.
=28	=28	=28	=28
1E	1c	0r	0r
1D	1B-y	.	.
=29	=29	=29	=29
2r	1A	0r	0r
2.D	.	.	.
.	2r	.	.
4E	.	.	.
[2F	[2A	.	.
=30	=30	=30	=30
4F]	4A]	0r	0r
4G	4B-y	.	.
2A	2c	.	.
2B-y	2d	.	.
[2c	[2e	.	.
=31	=31	=31	=31
4c]	4e]	0r	0r
4B-y	4d	.	.
4A	1g	.	.
4G	.	.	.
1A	.	.	.
.	2f#i	.	.
=32	=32	=32	=32
0G	0g	2r	0r
.	.	2d	.
.	.	2e	.
.	.	2d	.
=33	=33	=33	=33
0r	0r	1g	2r
.	.	.	2g
.	.	2f	2a
.	.	2b-y	2g
=34	=34	=34	=34
0r	0r	2a	1cc
.	.	2f	.
.	.	2g	2b-y
.	.	4f	2g
.	.	4e	.
=35	=35	=35	=35
0r	0r	0d	2a
.	.	.	1b-y
.	.	.	4a
.	.	.	4g
=36	=36	=36	=36
1D	0r	2r	2f
.	.	2d	2a
2E	.	2G	2g
2D	.	[2d	2f
=37	=37	=37	=37
1G	1r	2d]	2.b-y
.	.	4c	.
.	.	4B-y	4g
1F	1A	1c	4a
.	.	.	4b-y
.	.	.	2cc
=38	=38	=38	=38
2r	2B-y	2d	2f
2F	2A	2c	2cc
4BB-y	1d	2d	2.b-y
4C	.	.	.
4D	.	[2f	.
4E	.	.	4g
=39	=39	=39	=39
2.F	2c	4f]	2a
.	.	4g	.
.	2A	1a	2.ff
4G	.	.	.
2A	2c	.	.
.	.	.	4ee
2B-y	2d	2g	[2dd
=40	=40	=40	=40
1A	1e	1a	2dd]
.	.	.	2cc#i
1D	[1d	1f	[1dd
=41	=41	=41	=41
2r	1d]	0r	1dd]
2G	.	.	.
2G	2r	.	1r
2F	2d	.	.
=42	=42	=42	=42
2.B-y	2d	0r	0r
.	2d	.	.
4A	.	.	.
2A	2c	.	.
[2G	[2e	.	.
=43	=43	=43	=43
4G]	2e]	1r	0r
4F	.	.	.
4E	1d	.	.
4D	.	.	.
1E	.	2r	.
.	2c#i	2g	.
=44	=44	=44	=44
1D	0d	2g	2r
.	.	2f	2dd
1r	.	1b-y	2dd
.	.	.	2dd
=45	=45	=45	=45
0r	0r	2a	2cc
.	.	2.g	1ee
.	.	4f	.
.	.	4e	[2dd
.	.	4d	.
=46	=46	=46	=46
2r	0r	2e	2dd]
2A	.	2e	2cc#i
2B-y	.	2d	2dd
2G	.	2g	2b-y
=47	=47	=47	=47
1A	2r	2e	2cc
.	2e	2c	2cc
2F	2f	1d	2a
[2G	2d	.	[2b-y
=48	=48	=48	=48
2G]	1e	2G	2b-]
2E	.	2g	1cc
2F	1c	2a	.
2F	.	2f	2a
=49	=49	=49	=49
1D	2r	4f	2b-y
.	.	4e	.
.	1d	4d	2b-y
.	.	4c	.
2r	.	1B-y	1g
[2E-X	2B-y	.	.
=50	=50	=50	=50
2E-]	2c	1r	1gg
2C	2c	.	.
2D	1A	[1f	2.ff
2D	.	.	.
.	.	.	4ee
=51	=51	=51	=51
1BB-y	1B-y	0f_	1dd
[1F	[1A	.	[1cc
=52	=52	=52	=52
1F]	1A]	1f]	1cc]
1E	2B-y	1g	2r
.	[2c	.	2g
=53	=53	=53	=53
0C	2c]	0e-X	1g
.	4B-y	.	.
.	4A	.	.
.	1G	.	1cc
=54	=54	=54	=54
0Gl	0B-yl	0dl	0b-yl
=55||	=55||	=55||	=55||
*M2/1	*M2/1	*M2/1	*M2/1
*met(C)	*met(C)	*met(C)	*met(C)
!!section: Domine Deus, Agnus Dei
!!!OMD: Domine Deus, Agnus Dei
0r	1G	0r	0r
.	2c	.	.
.	2B-y	.	.
=56	=56	=56	=56
1r	1c	0r	0r
1D	[1d	.	.
=57	=57	=57	=57
2G	0d]	0r	0r
2F	.	.	.
1G	.	.	.
=58	=58	=58	=58
1A	1f	0r	0r
2r	2e	.	.
[2D	[2f	.	.
=59	=59	=59	=59
4D]	2f]	0r	0r
4E	.	.	.
4F	4e	.	.
4G	4d	.	.
2A	2c	.	.
2B-y	2d	.	.
=60	=60	=60	=60
2.c	2.A	0r	0r
4B-y	4B-y	.	.
2A	4c	.	.
.	4d	.	.
[2G	[2e	.	.
=61	=61	=61	=61
4G]	4e]	0r	0r
4F	4d	.	.
4E	1d	.	.
4D	.	.	.
1E	.	.	.
.	2c#i	.	.
=62	=62	=62	=62
1D	0d	0r	0r
[1G	.	.	.
=63	=63	=63	=63
2G]	2r	0r	0r
4F	1d	.	.
4E	.	.	.
2F	.	.	.
2G	4c	.	.
.	4B-y	.	.
=64	=64	=64	=64
2A	2c	0r	0r
2B-y	2d	.	.
2G	2e	.	.
2A	2f	.	.
=65	=65	=65	=65
2B-y	2d	0r	0r
2c	2.e	.	.
1G	.	.	.
.	4d	.	.
.	[2g	.	.
=66	=66	=66	=66
1A	2g]	0r	0r
.	2f#i	.	.
[1G	2g	.	.
.	2G	.	.
=67	=67	=67	=67
1G]	2d	0r	0r
.	2d	.	.
2r	1f	.	.
2D	.	.	.
=68	=68	=68	=68
2A	2.c	0r	0r
2A	.	.	.
.	4d	.	.
1c	4e	.	.
.	4f	.	.
.	[2g	.	.
=69	=69	=69	=69
1G	2g]	0r	0r
.	4f	.	.
.	4e	.	.
2r	2.d	.	.
[2G	.	.	.
.	4c	.	.
=70	=70	=70	=70
4G]	4B-y	0r	0r
4F	4A	.	.
4E	2G	.	.
4D	.	.	.
4C	2.g	.	.
4D	.	.	.
4E	.	.	.
4F	4f	.	.
=71	=71	=71	=71
2G	4e	0r	0r
.	4d	.	.
2A	2c	.	.
2B-y	2d	.	.
[2c	[2e	.	.
=72	=72	=72	=72
4c]	4e]	0r	0r
4B-y	4d	.	.
4A	1g	.	.
4G	.	.	.
1A	.	.	.
.	2f#i	.	.
=73	=73	=73	=73
0Gl	0gl	0r	0r
=74||	=74||	=74||	=74||
*M2/1	*M2/1	*M2/1	*M2/1
*met(C|)	*met(C|)	*met(C|)	*met(C|)
!!section: Qui tollis
!!!OMD: Qui tollis
0G	0r	0r	0r
=75	=75	=75	=75
1F	0d	0r	0r
1G	.	.	.
=76	=76	=76	=76
1A	1c	0r	0r
2D	1d	.	.
[2G	.	.	.
=77	=77	=77	=77
2G]	2e	0r	0r
4F	1d	.	.
4E	.	.	.
2D	.	.	.
[2G	4c	.	.
.	4B-y	.	.
=78	=78	=78	=78
2G]	4A	0r	0r
.	4G	.	.
2F#i	2A	.	.
2G	2G	.	.
2D	2d	.	.
=79	=79	=79	=79
2F	2c	0r	0r
2G	2B-y	.	.
1E	1c	.	.
=80	=80	=80	=80
1D	1d	0r	0r
1r	[1G	.	.
=81	=81	=81	=81
1.d	2G]	0r	0r
.	2A	.	.
.	2B-y	.	.
2c	2c	.	.
=82	=82	=82	=82
2B-y	2d	0r	0r
2A	2f	.	.
2G	2e	.	.
2F	[2d	.	.
=83	=83	=83	=83
1E	2d]	2r	1r
.	2c#i	2G	.
1D	[1d	2A	[1dd
.	.	[2B-y	.
=84	=84	=84	=84
0r	1d]	2B-]	2dd]
.	.	2c	2cc
.	1r	2d	2b-y
.	.	2f	2a
=85	=85	=85	=85
0r	1r	2e	2g
.	.	1d	2f
.	1A	.	1e
.	.	2c#i	.
=86	=86	=86	=86
1r	1B-y	0d	1d
1D	2A	.	1r
.	[2d	.	.
=87	=87	=87	=87
1E	2d]	0r	0r
.	2c	.	.
2D	[1d	.	.
[2G	.	.	.
=88	=88	=88	=88
2G]	1d]	0r	0r
4F	.	.	.
4E	.	.	.
2F	2.d	.	.
2G	.	.	.
.	4c	.	.
=89	=89	=89	=89
2.D	4d	0r	0r
.	4e	.	.
.	2.f	.	.
4C	.	.	.
4D	.	.	.
4E	4e	.	.
[2F	2d	.	.
=90	=90	=90	=90
4F]	2c	0r	0r
4E	.	.	.
2D	1B-y	.	.
1C	.	.	.
.	2A	.	.
=91	=91	=91	=91
1BB-y	1B-y	0B-y	1r
[1E-i	[1G	.	[1g
=92	=92	=92	=92
2E-]	2G]	1c	2g]
2E-i	2G	.	2g
1D	1A	[1d	1f
=93	=93	=93	=93
1G	1B-y	1d]	2r
.	.	.	2d
2G	2B-y	2r	2d
2G	2B-y	2g	2d
=94	=94	=94	=94
2F	2c	2a	2.f
2D	1d	1f	.
.	.	.	4g
2.F	.	.	4a
.	.	.	4b-y
.	4c	4e	[2cc
4G	4B-y	4d	.
=95	=95	=95	=95
2A	2A	4c	2cc]
.	.	4B-y	.
2.G	2.B-y	1e-i	4b-y
.	.	.	4a
.	.	.	2g
4F	4A	.	.
4E-i	2F	[2d	[2a
4D	.	.	.
=96	=96	=96	=96
1E-i	1G	2d]	2a]
.	.	2c	1g
1D	1A	1d	.
.	.	.	2f#i
=97	=97	=97	=97
0r	0G	1r	1g
.	.	1g	1r
=98	=98	=98	=98
0r	0r	1g	1dd
.	.	2d	1dd
.	.	2g	.
=99	=99	=99	=99
0r	0r	2f	2a
.	.	2e	2cc
.	.	2.d	2b-y
.	.	.	2a
.	.	4c	.
=100	=100	=100	=100
0r	0r	2d	2.b-y
.	.	2e	.
.	.	.	4g
.	.	2f	2a
.	.	[2d	[2b-y
=101	=101	=101	=101
0r	0r	4d]	2b-]
.	.	4c	.
.	.	4B-y	1a
.	.	4A	.
.	.	1B-y	.
.	.	.	2g
=102	=102	=102	=102
0r	0r	1A	0a
.	.	2r	.
.	.	2d	.
=103	=103	=103	=103
0r	0r	2e	1r
.	.	1g	.
.	.	.	1a
.	.	4f	.
.	.	4e	.
=104	=104	=104	=104
0r	0r	4d	2b-y
.	.	4c	.
.	.	2f	2dd
.	.	2e	2cc
.	.	2d	[2b-y
=105	=105	=105	=105
1r	0r	1c	2b-]
.	.	.	2a
1G	.	[1B-y	[1b-y
=106	=106	=106	=106
2G	1d	1B-]	1b-]
2G	.	.	.
1B-y	2d	1r	1r
.	2d	.	.
=107	=107	=107	=107
1A	1f	0r	0r
2.G	1e	.	.
4E	.	.	.
=108	=108	=108	=108
2F	2d	0r	0r
2.G	1e	.	.
4F	.	.	.
4E	[2d	.	.
4D	.	.	.
=109	=109	=109	=109
1E	2d]	1g	0r
.	2c#i	.	.
[1D	1d	2f	.
.	.	2d	.
=110	=110	=110	=110
1D]	2r	2.f	1a
.	2A	.	.
.	.	4e	.
1r	2c	1e	2g
.	2c	.	2e
=111	=111	=111	=111
1r	2B-y	0r	2.g
.	2B-y	.	.
.	.	.	4g
1F	1A	.	2f
.	.	.	2a
=112	=112	=112	=112
2E	2r	2r	2g
2C	2G	2c	2e
2.E-X	1G	2B-y	2.g
.	.	2G	.
4E-i	.	.	4g
=113	=113	=113	=113
1D	2.d	1B-y	2f
.	.	.	2.ff
.	4c	.	.
2r	4d	2B-y	.
.	4e	.	4ee
2BB-y	[2f	2B-y	[2dd
=114	=114	=114	=114
4BB-y	2f]	1F	2dd]
4C	.	.	.
4D	4e	.	4cc
4E	4d	.	4b-y
2F	2c	1r	2a
2G	2B-y	.	2dd
=115	=115	=115	=115
2A	2c	2r	2cc
1G	2d	4G	1b-y
.	.	4A	.
.	4G	4B-y	.
.	4A	4c	.
4F	4B-y	4d	4a
4E	4c	4e	4g
=116	=116	=116	=116
2D	2d	2f	2f
2C	1e	4e	2.g
.	.	4d	.
2.E	.	2c	.
.	.	.	4f
.	4d	[2B-y	2e
4F	4c	.	.
=117	=117	=117	=117
2G	2B-y	4B-]	2.d
.	.	4c	.
2G	2G	2.d	.
.	.	.	4e
1D	2.A	.	4f
.	.	4e	4g
.	.	4f	[2a
.	4B-y	4d	.
=118	=118	=118	=118
1C	1c	1e	4a]
.	.	.	4b-y
.	.	.	2cc
1D	1F	2r	2b-y
.	.	[2d	[2a
=119	=119	=119	=119
1E	1G	2d]	2a]
.	.	2c#i	1g
1D	1A	1d	.
.	.	.	2f#i
=120	=120	=120	=120
1G	2r	1B-y	1g
.	2G	.	.
2r	2d	1r	1r
2D	2d	.	.
=121	=121	=121	=121
2A	2.e-X	1r	0r
2A	.	.	.
.	4e-i	.	.
2.B-y	2d	2r	.
.	2d	2d	.
4B-y	.	.	.
=122	=122	=122	=122
1A	2d	2a	1r
.	2c	2a	.
1r	2d	2.b-y	2r
.	2e	.	2g
.	.	4b-y	.
=123	=123	=123	=123
2r	2f	0a	2dd
2D	4e	.	2dd
.	4d	.	.
2A	1c	.	2.ee
2A	.	.	.
.	.	.	4ee
=124	=124	=124	=124
2.B-y	0r	2r	2dd
.	.	2d	2g
4B-y	.	.	.
1A	.	2d	2a
.	.	2c	2cc
=125	=125	=125	=125
2r	1r	2d	2b-y
2D	.	2f	2a
2E	2r	2e	1g
2G	2G	[2d	.
=126	=126	=126	=126
2F	2A	4d]	2r
.	.	4c	.
2E	2c	2c	2g
1D	2B-y	1d	2g
.	2A	.	2f
=127	=127	=127	=127
2r	2G	2.B-y	2g
2D	1d	.	2a
.	.	4c	.
2BB-y	.	2d	2b-y
2C	4c	[2e	4a
.	4B-y	.	4g
=128	=128	=128	=128
1D	2A	4e]	1f
.	.	4d	.
.	2F	1d	.
1E-i	1G	.	2r
.	.	2c	2g
=129	=129	=129	=129
1D	1A	1d	2g
.	.	.	2f#i
2r	2G	2r	2g
2D	[2d	[2f	2a
=130	=130	=130	=130
2BB-y	2d]	2f]	2b-y
2C	4c	2e	4a
.	4B-y	.	4g
2D	2A	2d	2f
2E-i	2G	2c	2g
=131	=131	=131	=131
2D	2d	1.f	2a
2AA	2c	.	2cc
2BB-y	2.d	.	2b-y
2C	.	2e	[2a
.	4c	.	.
=132	=132	=132	=132
2D	2B-y	2d	4a]
.	.	.	4g
2E-i	2G	2c	1g
1D	1A	1d	.
.	.	.	2f#i
=133	=133	=133	=133
0GGl	0Gl	0dl	0gl
==	==	==	==
*-	*-	*-	*-
!!!system-decoration: s1,s2,s3,s4
!!!RDF**kern: i = editorial accidental
!!!RDF**kern: l = terminal long
!!!ENC: Maura Sugg
!!!END: 2026/6/15
!!!EED: Benjamin Ory
!!!EEV: 2026/06/21
!!!YEC: Copyright 2026 Benjamin Ory, All Rights Reserved
!!!ONB: Translated from MusicXML on 2026/06/21
!!!verovio: header encoded
!!!header-left: Edited by Zoe Saunders (2010)\n
!!!header-right:
!!!header-center:
!!muse2ps: T^@{OPR}^u^@{ONM}{. }@{OTL}^C^@{COM}^i2I150v90,90,90,120c120z18l2770t130
